X: 8938
T: Curragh Races, The
R: reel
M: 4/4
K: Adorian
|:e2BA eABA|~G3B dGAG|~e3A eABA|dBGA BA~A2|
e2BA eABA|~G3B dGBG|cBcA B3G|1 dBGA BAA2:|2 dBGA BAAB||
|:c2ec gceB|c2eg dBGB|c2ec gceg|dBGA BAAB|
c2ec gceB|cdeg dBGB|cBcA B3G|1 dBGA BAAB:|2 dBGA BAA2||

